public/assets/badges/pollFillIn.svg

<svg fill="none" height="191" viewBox="0 0 191 191" width="191" xmlns="http://www.w3.org/2000/svg" xmlns:xlink="http://www.w3.org/1999/xlink"><filter id="a" color-interpolation-filters="sRGB" filterUnits="userSpaceOnUse" height="158.775" width="168.417" x="11.543" y="18.6431"><feFlood flood-opacity="0" result="BackgroundImageFix"/><feColorMatrix in="SourceAlpha" type="matrix" values="0 0 0 0 0 0 0 0 0 0 0 0 0 0 0 0 0 0 127 0"/><feOffset dy="4"/><feColorMatrix type="matrix" values="0 0 0 0 0 0 0 0 0 0 0 0 0 0 0 0 0 0 0.15 0"/><feBlend in2="BackgroundImageFix" mode="normal" result="effect1_dropShadow"/><feBlend in="SourceGraphic" in2="effect1_dropShadow" mode="normal" result="shape"/></filter><filter id="b" color-interpolation-filters="sRGB" filterUnits="userSpaceOnUse" height="85.8369" width="62.5906" x="64.5078" y="53.6753"><feFlood flood-opacity="0" result="BackgroundImageFix"/><feColorMatrix in="SourceAlpha" type="matrix" values="0 0 0 0 0 0 0 0 0 0 0 0 0 0 0 0 0 0 127 0"/><feOffset dy="1"/><feColorMatrix type="matrix" values="0 0 0 0 0 0 0 0 0 0 0 0 0 0 0 0 0 0 0.15 0"/><feBlend in2="BackgroundImageFix" mode="normal" result="effect1_dropShadow"/><feBlend in="SourceGraphic" in2="effect1_dropShadow" mode="normal" result="shape"/></filter><g filter="url(#a)"><path d="m172.08 65.4858-71.155-42.4316c-3.155-1.8816-7.0879-1.8816-10.2432-.0001l-71.2587 42.4925c-4.263 2.5421-6.0163 7.8262-4.1185 12.4125l22.7389 54.9509c.7765 1.877 2.106 3.473 3.8115 4.575l48.4687 31.331c3.3301 2.153 7.6176 2.134 10.9293-.047l47.565-31.328c1.634-1.076 2.916-2.607 3.688-4.403l23.64-55.0153c1.98-4.6073.241-9.9685-4.066-12.5369z" fill="#54bbab"/><g stroke-width="6"><path d="m172.08 65.4858-71.155-42.4316c-3.155-1.8816-7.0879-1.8816-10.2432-.0001l-71.2587 42.4925c-4.263 2.5421-6.0163 7.8262-4.1185 12.4125l22.7389 54.9509c.7765 1.877 2.106 3.473 3.8115 4.575l48.4687 31.331c3.3301 2.153 7.6176 2.134 10.9293-.047l47.565-31.328c1.634-1.076 2.916-2.607 3.688-4.403l23.64-55.0153c1.98-4.6073.241-9.9685-4.066-12.5369z" stroke="#000"/><path d="m172.08 65.4858-71.155-42.4316c-3.155-1.8816-7.0879-1.8816-10.2432-.0001l-71.2587 42.4925c-4.263 2.5421-6.0163 7.8262-4.1185 12.4125l22.7389 54.9509c.7765 1.877 2.106 3.473 3.8115 4.575l48.4687 31.331c3.3301 2.153 7.6176 2.134 10.9293-.047l47.565-31.328c1.634-1.076 2.916-2.607 3.688-4.403l23.64-55.0153c1.98-4.6073.241-9.9685-4.066-12.5369z" stroke="#eee"/></g></g><g filter="url(#b)"><path d="m123.291 137.262h-54.9761c-1.4115 0-2.5571-1.145-2.5571-2.557v-77.2227c0-1.4114 1.1456-2.557 2.5571-2.557h54.9761c1.412 0 2.557 1.1456 2.557 2.557v77.2227c0 1.414-1.145 2.557-2.557 2.557z" fill="#d6d7d7" stroke="#eee" stroke-miterlimit="10" stroke-width="2.5"/></g><g stroke-miterlimit="10"><path d="m121.239 64.724v66.834c0 .749-.608 1.357-1.358 1.357h-44.0779c-.7492 0-1.3578-.608-1.3578-1.357v-66.834c0-.7492.6086-1.3578 1.3578-1.3578h44.0759c.752-.0025 1.36.606 1.36 1.3578z" fill="#fff" stroke="#999" stroke-width="2.5"/><path d="m116.54 60.8066c.902 0 1.634.7314 1.634 1.634v52.3634s-.512 12.23-8.95 14.02c-6.827 1.447-30.2243.217-38.9106-.304-1.5419-.092-2.5187-1.69-1.905-3.107 1.4371-3.322 3.4827-9.011 3.4827-14.488 0-7.441.1662-40.7263.2071-48.4946.0051-.9001.7339-1.6238 1.634-1.6238z" fill="#fff" stroke="#999" stroke-width="2.5"/><path d="m104.265 55.0839-.907-.2276c-.711-.6239-1.43-1.2529-1.688-1.8078-.322-.6878-.639-1.3757-.974-2.0277-1.1151-2.1658-2.4524-3.9251-4.9814-3.9251-3.2883 0-4.6436 2.9381-5.9553 5.9554-.2915.6699-1.1354 1.3117-1.9894 1.9075l-.3759.1253c-3.5824 0-6.812 2.6159-6.812 5.8403v1.253c0 .2045.1662.3707.3708.3707h29.4342c.205 0 .371-.1662.371-.3707v-1.253c-.003-3.2244-2.908-5.8403-6.493-5.8403z" fill="#ffed00" stroke="#ffed00" stroke-width="3"/></g><path d="m95.67 54.2778c1.4563 0 2.6369-1.1805 2.6369-2.6368s-1.1806-2.6368-2.6369-2.6368c-1.4562 0-2.6368 1.1805-2.6368 2.6368s1.1806 2.6368 2.6368 2.6368z" fill="#fff"/></svg>

<svg width="191" height="191" viewBox="0 0 191 191" fill="none" xmlns="http://www.w3.org/2000/svg">
<g filter="url(#filter0_d)">
<path d="M172.08 65.4858L100.925 23.0542C97.77 21.1726 93.8371 21.1726 90.6818 23.0541L19.4231 65.5466C15.1601 68.0887 13.4068 73.3728 15.3046 77.9591L38.0435 132.91C38.82 134.787 40.1495 136.383 41.855 137.485L90.3237 168.816C93.6538 170.969 97.9413 170.95 101.253 168.769L148.818 137.441C150.452 136.365 151.734 134.834 152.506 133.038L176.146 78.0227C178.126 73.4154 176.387 68.0542 172.08 65.4858Z" fill="#54BBAB"/>
<path d="M172.08 65.4858L100.925 23.0542C97.77 21.1726 93.8371 21.1726 90.6818 23.0541L19.4231 65.5466C15.1601 68.0887 13.4068 73.3728 15.3046 77.9591L38.0435 132.91C38.82 134.787 40.1495 136.383 41.855 137.485L90.3237 168.816C93.6538 170.969 97.9413 170.95 101.253 168.769L148.818 137.441C150.452 136.365 151.734 134.834 152.506 133.038L176.146 78.0227C178.126 73.4154 176.387 68.0542 172.08 65.4858Z" stroke="black" stroke-width="6"/>
<path d="M172.08 65.4858L100.925 23.0542C97.77 21.1726 93.8371 21.1726 90.6818 23.0541L19.4231 65.5466C15.1601 68.0887 13.4068 73.3728 15.3046 77.9591L38.0435 132.91C38.82 134.787 40.1495 136.383 41.855 137.485L90.3237 168.816C93.6538 170.969 97.9413 170.95 101.253 168.769L148.818 137.441C150.452 136.365 151.734 134.834 152.506 133.038L176.146 78.0227C178.126 73.4154 176.387 68.0542 172.08 65.4858Z" stroke="#EEEEEE" stroke-width="6"/>
</g>
<g filter="url(#filter1_d)">
<path d="M123.291 137.262H68.3149C66.9034 137.262 65.7578 136.117 65.7578 134.705V57.4823C65.7578 56.0709 66.9034 54.9253 68.3149 54.9253H123.291C124.703 54.9253 125.848 56.0709 125.848 57.4823V134.705C125.848 136.119 124.703 137.262 123.291 137.262Z" fill="#D6D7D7" stroke="#EEEEEE" stroke-width="2.5" stroke-miterlimit="10"/>
</g>
<path d="M121.239 64.724V131.558C121.239 132.307 120.631 132.915 119.881 132.915H75.8031C75.0539 132.915 74.4453 132.307 74.4453 131.558V64.724C74.4453 63.9748 75.0539 63.3662 75.8031 63.3662H119.879C120.631 63.3637 121.239 63.9722 121.239 64.724Z" fill="white" stroke="#999999" stroke-width="2.5" stroke-miterlimit="10"/>
<path d="M116.54 60.8066C117.442 60.8066 118.174 61.538 118.174 62.4406V114.804C118.174 114.804 117.662 127.034 109.224 128.824C102.397 130.271 78.9997 129.041 70.3134 128.52C68.7715 128.428 67.7947 126.83 68.4084 125.413C69.8455 122.091 71.8911 116.402 71.8911 110.925C71.8911 103.484 72.0573 70.1987 72.0982 62.4304C72.1033 61.5303 72.8321 60.8066 73.7322 60.8066H116.54Z" fill="white" stroke="#999999" stroke-width="2.5" stroke-miterlimit="10"/>
<path d="M104.265 55.0839L103.358 54.8563C102.647 54.2324 101.928 53.6034 101.67 53.0485C101.348 52.3607 101.031 51.6728 100.696 51.0208C99.5809 48.855 98.2436 47.0957 95.7146 47.0957C92.4263 47.0957 91.071 50.0338 89.7593 53.0511C89.4678 53.721 88.6239 54.3628 87.7699 54.9586L87.394 55.0839C83.8116 55.0839 80.582 57.6998 80.582 60.9242V62.1772C80.582 62.3817 80.7482 62.5479 80.9528 62.5479H110.387C110.592 62.5479 110.758 62.3817 110.758 62.1772V60.9242C110.755 57.6998 107.85 55.0839 104.265 55.0839Z" fill="#FFED00" stroke="#FFED00" stroke-width="3" stroke-miterlimit="10"/>
<path d="M95.67 54.2778C97.1263 54.2778 98.3069 53.0973 98.3069 51.641C98.3069 50.1847 97.1263 49.0042 95.67 49.0042C94.2138 49.0042 93.0332 50.1847 93.0332 51.641C93.0332 53.0973 94.2138 54.2778 95.67 54.2778Z" fill="white"/>
<defs>
<filter id="filter0_d" x="11.543" y="18.6431" width="168.417" height="158.775" filterUnits="userSpaceOnUse" color-interpolation-filters="sRGB">
<feFlood flood-opacity="0" result="BackgroundImageFix"/>
<feColorMatrix in="SourceAlpha" type="matrix" values="0 0 0 0 0 0 0 0 0 0 0 0 0 0 0 0 0 0 127 0"/>
<feOffset dy="4"/>
<feColorMatrix type="matrix" values="0 0 0 0 0 0 0 0 0 0 0 0 0 0 0 0 0 0 0.15 0"/>
<feBlend mode="normal" in2="BackgroundImageFix" result="effect1_dropShadow"/>
<feBlend mode="normal" in="SourceGraphic" in2="effect1_dropShadow" result="shape"/>
</filter>
<filter id="filter1_d" x="64.5078" y="53.6753" width="62.5906" height="85.8369" filterUnits="userSpaceOnUse" color-interpolation-filters="sRGB">
<feFlood flood-opacity="0" result="BackgroundImageFix"/>
<feColorMatrix in="SourceAlpha" type="matrix" values="0 0 0 0 0 0 0 0 0 0 0 0 0 0 0 0 0 0 127 0"/>
<feOffset dy="1"/>
<feColorMatrix type="matrix" values="0 0 0 0 0 0 0 0 0 0 0 0 0 0 0 0 0 0 0.15 0"/>
<feBlend mode="normal" in2="BackgroundImageFix" result="effect1_dropShadow"/>
<feBlend mode="normal" in="SourceGraphic" in2="effect1_dropShadow" result="shape"/>
</filter>
</defs>
</svg>
